X:1
T:Railroading on the Great Divide
M:3/4
L:1/4
K:G
 d| d e d| B- A G| G G G| E- D2| z3| G G G| d2- d/2d/2| d/2 B G3/2|\
 A3-| A3| z3| d2 d| B G G| G G G|E/2-D/2 D2-| D2 G| G2 G| B2 D| B2- B/2A/2|\
A/2-G/2 G2-| G3| d2 d/2B/2| G- B A| G2 G|E/2-D/2 D2| z3| G G G| B d d|\
 d B G| A3-| A3| z3| d2d/2-e/2|B/2-A/2 G G| G2 G|E/2-D/2 D2-| D3| G2 G/2G/2|\
 B2 D| B2- B/2A/2|A/2-G/2 G2-| G3| z2||
